X:1
T:Bach / Vivaldi - Concerto in G Major.
C:Bach / Vivaldi
%%score { ( 1 3 ) | ( 2 4 5 ) } 6
L:1/8
Q:1/4=100
M:2/2
K:G
V:1 treble nm="Harpsichord"
V:3 treble 
V:2 bass 
V:4 bass 
V:5 bass 
V:6 treble nm="Harpsichord" snm="Hch."
V:1
!fff!"^( T u t t i )""^C o n c e r t o   IX." D | GGGG G/D/B,/D/ G/D/B,/D/ | %2
 GGGG G/D/B,/D/ G/D/B,/D/ | GA/B/ AG FD z A | dddd d/A/F/A/ d/A/F/A/ | dddd d/A/F/A/ d/A/F/A/ | %6
 de/f/ ed ^cA z A | d/A/F/A/ d/A/F/A/ d/B/G/B/ d/B/G/B/ | e/B/G/B/ e/B/G/B/ e/^c/A/c/ e/c/A/c/ | %9
 f/^c/A/c/ f/c/A/c/ f/d/B/d/ f/d/B/d/ | g/d/B/d/ g/d/B/d/ ^cAdF | GdA^c d2 z d | %12
 dG z =f (Pfe) z e | eA z g (Pgf) z d | dG z =F (PFE) z e | eA z G (PG^F) z d | %16
 A/G/A/F/ B/A/B/G/ =c/B/c/A/ B/A/B/G/ | A/G/A/F/ B/A/B/G/ c/B/c/A/ B/A/B/G/ | AFGB, CGDF | %19
 [DG]2 z D GGGG | G/D/B,/D/ G/D/B,/D/ GGGG | G/D/B,/D/ G/D/B,/D/ GA/B/ AG | %22
 FD z"^(Solo)" d d/g/d/g/ d/g/d/g/ | e/g/e/g/ e/g/e/g/ d/g/d/g/ d/g/d/g/ | %24
 [ce]2 z e e/a/e/a/ e/a/e/a/ | f/a/f/a/ f/a/f/a/ e/a/e/a/ e/a/e/a/ | [df]2 z f f/b/f/b/ f/b/f/b/ | %27
 g/b/g/b/ g/b/g/b/ f/b/f/b/ f/b/f/b/ | [eg]2 z g g/=c'/g/c'/ g/c'/g/c'/ | %29
 a/c'/a/c'/ a/c'/a/c'/ g/c'/g/c'/ g/c'/g/c'/ | [=fa]2 z a ^a/d/e/d/ a/d/e/d/ | %31
 a/b/a/d/ a/b/a/d/ a/b/a/d/ a/c'/b/a/ | g/a/g/c'/ g/a/g/c'/ g/a/g/c'/ g/a/b/c'/ | %33
 f/g/f/b/ f/g/f/b/ f/g/f/b/ f/g/a/b/ | e/f/e/a/ e/f/e/a/ e/f/e/a/ e/f/g/a/ | %35
 d/e/d/g/ d/e/d/g/ d/e/d/g/ d/e/f/g/ | P^cA z A c/A/G/A/ c/A/G/A/ | %37
 e/A/G/A/ e/A/G/A/ g/A/G/A/ g/A/G/A/ | fdA^c"^(T u t t i)" dddd | d/A/F/A/ d/A/F/A/ dddd | %40
 d/A/F/A/ d/A/F/A/ de/f/ ed | ^c/A/c/e/ c/A/c/e/ [^ceg][ceg][ceg][ceg] | %42
 ^c/A/c/e/ c/A/c/e/ [^ceg][ceg][ceg][ceg] | fd"^( S o l o )" z D G/D/=C/D/ G/D/C/D/ | %44
 G/A/B/c/ d=F E/C/B,/C/ E/C/B,/C/ | A/B/^c/d/ eG ^F/D/^C/D/ F/D/C/D/ | %46
 B/^c/^d/e/ fA G/E/^D/E/ G/E/D/E/ | ^c/=d/e/f/ gB ^A/F/G/F/ ^c/F/G/F/ | %48
 E/F/G/F/ ^c/F/G/F/ E/F/G/F/ c/F/G/F/ | e/F/G/F/ e/F/G/F/ d^c/B/ P^A>B | %50
"^(T u t t i)" BBBB B/F/D/F/ B/F/D/F/ | BBBB B/F/D/F/ B/F/D/F/ | ^cccc c/^A/F/A/ c/A/F/A/ | %53
 ^cccc c/^A/F/A/ c/A/F/A/ | dB z d gggg | g/e/^c/e/ g/e/c/e/ ffff | f/d/B/d/ f/d/B/d/ eeee | %57
 e/=c/A/c/ e/c/A/c/ dddd | d/B/G/B/ d/B/G/B/ cccc | c/A/F/A/ c/A/F/A/ B"^(S o l o)" G/A/ B/c/d/e/ | %60
 d/c/B/A/ z [d=f] ([df][ce]) z2 | e/d/^c/B/ z [eg] ([eg][d^f]) z2 | %62
 f/e/^d/^c/ z [fa] ([fa][eg]) z2 | g/=f/e/d/ cb c/a/g/a/ Bg | A/^f/e/f/ Ge ^F/d/c/d/ Ec | %65
 D/B/A/B/ CA B,/G/F/G/ B,/G/F/G/ | C/G/F/G/ D/G/F/G/ E/G/F/G/ B,/G/F/G/ | %67
 C/G/F/G/ D/G/F/G/ E/G/F/G/ B,/G/F/G/ | C/G/F/G/ D/F/E/F/ GGGG | G/D/B,/D/ G/D/B,/D/ GGGG | %70
 G/D/B,/D/ G/D/B,/D/ GA/B/ AG | F/F/A/F/ A/F/A/F/ D/F/A/F/ A/F/A/F/ | %72
 D/F/c/F/ c/F/c/F/ D/F/c/F/ c/F/c/F/ | D/G/B/G/ B/G/B/G/ D/G/B/G/ B/G/B/G/ | %74
 D/G/_B/G/ B/G/B/G/ D/G/B/G/ B/G/B/G/ | D/G/A/G/ A/G/A/G/ D/G/A/G/ A/G/A/G/ | %76
 D/F/A/F/ A/F/A/F/ D/F/A/F/ A/F/A/F/ | G"^(T u t t i)"GGG G/D/B,/D/ G/D/B,/D/ | %78
 GGGG G/D/B,/D/ G/D/B,/D/ | GA/B/ AG FD z d | dG z =f (Pfe) z e | eA z g (Pg^f) z d | %82
 dG z =F (PFE) z e | eA z G (PG^F) z d | A/G/A/F/ B/A/B/G/ c/B/c/A/ B/A/B/G/ | %85
 A/G/A/F/ B/A/B/G/ c/B/c/A/ B/A/B/G/ | %86
 AF[Q:1/4=95]G[Q:1/4=90]B,[Q:1/4=80] C[Q:1/4=70]G[Q:1/4=60]D[Q:1/4=60]F |[Q:1/4=50] G4 z4 |] %88
[K:D][M:3/4][Q:1/4=45]"^Largo." [df]2 [df]2 z3/2 [df]/ | [eg]2 [eg]2 z3/2 [eg]/ | g2 f2 z2 | %91
 d2 d2 z3/2 d/ | d2 c2 z3/2 c/ | c2 c2 z3/2 c/ | B6 | z Bdf (B/c/4d/4e/f/) | %96
 g(f/e/) (d/c/)(B/^A/) (^G/F)e/ | d(B,/D/) (F/C/)(D/F/) (B/d/)(c/d/) | %98
 (=G/^D/)(E/G/) (=c/F/)(G/c/) (e/c/)(g/B/) | (^A/F/)(E/A/) (B/D/)(^A,/B,/) (F,/^C/)(B/^A/) | %100
 F/4B/4d/4B/4F/4B/4F/4B/4 F/4B/4d/4B/4F/4B/4F/4B/4 F/4B/4d/4B/4F/4B/4F/4B/4 | %101
 F/4^A/4c/4A/4F/4A/4F/4A/4 F/4A/4c/4A/4F/4A/4F/4A/4 F/4A/4c/4A/4F/4A/4F/4A/4 |"^(appregio" [FBd]6 | %103
 [F^Ac]6 | [FBd]6 | [GBd]6 | [Adf]6 | [Acg]6 | [Adf]6 | [FAd]6 | [EGd]6 |"^)" [EGc]6 | %112
 d Adf (f/g/4a/4g/f/) | (e/g/e/c/) (A/E/C/E/) (A/c/e/g/) | (g/d/)(d/f/) (f/a/)(a/f/) (f/d/)(d/f/) | %115
 (^G/E/)(E/F/) (F/B/)(B/d/) (d/B/)(B/c/) | (c/A/)(A/c/) (c/e/)(e/=g/) (g/c/)(c/e/) | %117
 (^A/F/)(F/c/) (c/A/)(A/g/) (f/e/d/c/) | (d/B/^A/B/) (d/B/A/B/) (d/B/A/B/) | %119
 (^e/c/^d/e/) f/(=A/^G/F/) (C/G/f/^e/) | f2 z3/2 f/ !turn!=g>a | ^d>cB>A =G>F | G>FE>e f>g | %123
 d/=cd/4B/4 B/AB/4G/4 G/FG/4E/4 | E/G/F/E/4D/4 D3/2 d<ef/ | B/d/B/A/ G/B/G/F/ E/G/E/D/ | %126
 E/C/D/B,/ C3/2 c<de/ | ^A/F/e/c/ A/F/E/e/ c/A/F/E/ | E/D/C/D/ B,/C/D/^E/ F/^A/B/c/ | %129
 F/4B/4d/4B/4F/4B/4F/4B/4 F/4B/4d/4B/4F/4B/4F/4B/4 F/4B/4d/4B/4F/4B/4F/4B/4 | %130
 F/4^A/4c/4A/4F/4A/4F/4A/4 F/4A/4c/4A/4F/4A/4F/4A/4 F/4A/4c/4A/4F/4A/4F/4A/4 |"^(appregio" [FBd]6 | %132
 [F^Ae]6 | [FBd]6 | [GBc]6 |"^)" [F^Ac]6 | (d/f/d/c/) (B/d/B/^A/) (B/F/D/C/) |"^(appregio" [DF]6 | %138
 F6 |"^)" F6 | [DF]2 z2 z2 |[K:bass] E,2 E,2 z3/2 E,/ | F,2 F,2 z3/2 F,/ | B,6 |] %144
[K:G][M:12/8][K:treble][Q:1/4=180]"^Allegro." GDG FDF GDG FDF | GDG FDF GAB ABG | FEF D3 GDG FDF | %147
 GDG FDF GDG FDF | GAB ABG F3 z2 z | dAd ^cAc dAd cAc | dAd ^cAc def efd | ^cBc A3 dAd ^cAc | %152
 dAd ^cAc dAd cAc | def efd ^c3 z2 z | dFG AB=c BGA B^cd | e^GA B^cd cAB cde | f^AB ^cde dBc def | %157
 =gB^c def cAc dAd | eAe fAf gAg fAf | eAe dAd ^cAc dFd | dGd ^cAc d3 z2 d | dAd dAd BGB BGB | %162
 eBe eBe ^cAc dFd | dGd ^cAc d3- dec | d3- de^c dfd AdA | FdA FAF D6 |] GDG FDF GDG FDF | %167
 GDG FDF GAB ABG | FEF D3 GDG FDF | GDG FDF GDG FDF | GAB ABG F3 z2 z | dAd ^cAc dAd cAc | %172
 dAd ^cAc def efd | ^cBc A3 dAd ^cAc | dAd ^cAc dAd cAc | def efd ^c3 z2 z | dFG AB=c BGA B^cd | %177
 e^GA B^cd cAB cde | f^AB ^cde dBc def | =gB^c def cAc dAd | eAe fAf gAg fAf | eAe dAd ^cAc dFd | %182
 dGd ^cAc d3 z2 d | dAd dAd BGB BGB | eBe eBe ^cAc dFd | dGd ^cAc d3- dec | d3- de^c dfd AdA | %187
 FdA FAF D6 |] dAd ^cBc dAd cBc | dAd ^cBc def efd | ^cBc A3 eBe ^dBd | eBe ^dBd eBe dBd | %192
 efg fge ^d^cd B3 | gBg gBg gAg gAg | fAf fAf fGf fGf | eGe eGe ^AFe AFe | ^AFe AFe dBd dBd | %197
 dBd dBd ^cBc cBc | ^cBc cBc c^Ac cAc | ^c^Ac cAc (B/g/f/e/d/=c/ B/e/d/c/B/=A/) | GDG FDF GDG FDF | %201
 GDG FDF GAB ABG | FEF D3 GDG DB,D | ECD EFG AEA E^CE | FDE FGA BFB F^DF | GEF GAB =cGc GEG | %206
 AFG ABc dAd AFA | BGB dBd gBg gBg | gAg fAf fGf eGe | eFe dFd dEd cEc | cDc BDB BCB ABG | %211
 FDF GDG ADA BDB | cDc BDB ADA GDG | FDF GB,G GCG FDF | GEG FDF GEG FDF | GDB AFA BGB AFA | %216
 BGg fdf gdg fdf | gBg gBg gAg gAg | g3 z2 z[Q:1/4=170] GB,G[Q:1/4=160] GB,G | %219
[Q:1/4=150] GCG[Q:1/4=120] FDF G,6 :| %220
V:2
 z | z2 z D, [B,,D,G,][B,,D,G,][B,,D,G,][B,,D,G,] | %2
 G,/D,/B,,/D,/ G,/D,/B,,/D,/ [B,,D,G,][B,,D,G,][B,,D,G,][B,,D,G,] | %3
 G,,/4D,/4E,/4F,/4G,/E,/ C,/D,/E,/C,/ D,/F,/A,/F,/ D,/F,/A,/F,/ | %4
 z2 z A, [F,A,D][F,A,D][F,A,D][F,A,D] | D/A,/F,/A,/ D/A,/F,/A,/ [F,A,D][F,A,D][F,A,D][F,A,D] | %6
 D,/4F,/4A,/4^C/4D/B,/ G,/A,/B,/G,/ A,/^C/E/C/ A,/C/G,/C/ | A,D z A, B,D z B, | B,E z B, ^CE z C | %9
 ^CF z C DF z D | DG z [DG] A,/4B,/4^C/4D/4E/G,/ F,/A,/D,/F,/ | %11
 E,/B,/G,/E,/ A,/E,/A,,/G,/ F,/A,/D/A,/ F,/A,/C,/F,/ | %12
 G,/A,/B,/=C/ D/B,/G,/B,/ C,/4G,/4A,/4B,/4C/G,/ E,/G,/C,/G,/ | %13
 A,/B,/^C/D/ E/C/A,/C/ D,/4A,/4B,/4C/4D/A,/ F,/A,/=C,/F,/ | %14
 G,/A,/B,/=C/ D/B,/G,/B,/ C,/4G,/4A,/4B,/4C/G,/ E,/G,/C,/G,/ | %15
 A,/B,/^C/D/ E/C/A,/C/ D,/4A,/4B,/4C/4D/A,/ F,/A,/=C,/F,/ | F,DG,D A,DG,D | F,DG,D A,DG,D | %18
 D,/4E,/4F,/4G,/4A,/C,/ B,,/D,/G,,/B,,/ A,,/E,/C,/A,,/ D,/A,,/D,,/D,/- | D,2 z2 z2 z D, | %20
 [B,,D,G,][B,,D,G,][B,,D,G,][B,,D,G,] G,/D,/B,,/D,/ G,/D,/B,,/D,/ | %21
 [B,,D,G,][B,,D,G,][B,,D,G,][B,,D,G,] G,,/4D,/4E,/4F,/4G,/E,/ C,/D,/E,/C,/ | %22
 D,/4E,/4F,/4G,/4A,/F,/ D,/F,/C,/F,/ B,,G,, z B,, | C,C,, z C, B,,G,, z B,, | %24
 C,/4G,/4A,/4B,/4C/G,/ E,/G,/D,/G,/ ^C,A,, z C, | D,D,, z D, ^C,A,, z C, | %26
 D,/4A,/4B,/4^C/4D/A,/ F,/A,/E,/A,/ ^D,B,, z D, | E,E,, z E, ^D,B,, z D, | %28
 E,/4B,/4^C/4^D/4E/B,/ G,/B,/F,/B,/ E,=C, z E, | =F,=F,, z F, E,C, z E, | %30
 =F,/4C/4D/4E/4=F/C/ A,/C/G,/C/- CCCC | CCCC DDDD | B,B,B,B, CCCC | A,A,A,A, B,B,B,B, | %34
 G,G,G,G, A,A,A,A, | F,F,F,F, G,G,G,G, | G,/E,/^C,/E,/ G,/E,/C,/E,/ z C,A,C, | z ^C,A,C, z C,A,C, | %38
 D,/E,/F,/G,/ A,/F,/G,/A,/ z2 z A, | [F,A,D][F,A,D][F,A,D][F,A,D] D/A,/F,/A,/ D/A,/F,/A,/ | %40
 [F,A,D][F,A,D][F,A,D][F,A,D] D,/4F,/4A,/4^C/4D/B,/ G,/A,/B,/G,/ | %41
 A,A,A,A, ^C,/A,,/C,/E,/ C,/A,,/C,/E,/ | G,G,G,G, ^C,/A,,/C,/E,/ C,/A,,/C,/E,/ | %43
 D,/4E,/4F,/4G,/4A,/F,/ D,/F,/=C,/F,/ z G,D,G, | D,2 z2 z E,G,E, | E,2 z2 z F,A,F, | %46
 F,2 z2 z G,B,G, | G,2 z2 z ^A,EA, | z ^A,EA, z A,EA, | z ^A,^CA, B,/F,/G,/E,/ F,/D,/E,/F,/ | %50
 z2 z F, [D,F,B,][D,F,B,][D,F,B,][D,F,B,] | %51
 B,/F,/D,/F,/ B,/F,/D,/F,/ [D,F,B,][D,F,B,][D,F,B,][D,F,B,] | %52
 E/^C/^A,/C/ E/C/A,/C/ [CE][CE][CE][CE] | E/^C/^A,/C/ E/C/A,/C/ [CE][CE][CE][CE] | %54
 B,/D/F/D/ B,/D/F/D/ B,/D/G/D/ B,/D/G/D/ | [^CE][CE][CE][CE] A,/^C/F/C/ A,/C/F/C/ | %56
 [B,D][B,D][B,D][B,D] =G,/B,/E/B,/ G,/B,/E/B,/ | [A,=C][A,C][A,C][A,C] F,/A,/D/A,/ F,/A,/D/A,/ | %58
 [G,B,][G,B,][G,B,][G,B,] E,/G,/C/G,/ E,/G,/C/G,/ | %59
 [F,A,D][F,A,D][F,A,D][F,A,D] [G,D] z G,/A,/B,/C/ | D/E/D/C/ B,/A,/B,/G,/ CC, z A,/B,/ | %61
 ^C/D/C/B,/ C/B,/C/A,/ DD, z B,/^C/ | ^D/E/F/E/ D/^C/D/B,/ EE, z C/D/ | %63
 E/=F/G/F/ E/D/C/D/ E/D/E/C/ D/C/B,/D/ | C/B,/C/A,/ B,/A,/G,/B,/ A,/G,/A,/^F,/ G,/F,/E,/G,/ | %65
 F,/E,/F,/D,/ E,/D,/C,/E,/ G,G, G,G, | A,A,B,B, CCG,G, | A,A,B,B, CCG,G, | A,A,D,D, G,2 z D, | %69
 [B,,D,G,][B,,D,G,][B,,D,G,][B,,D,G,] G,/D,/B,,/D,/ G,/D,/B,,/D,/ | %70
 [B,,D,G,][B,,D,G,][B,,D,G,][B,,D,G,] G,,/4D,/4E,/4F,/4G,/E,/ C,/D,/E,/C,/ | D,D,D,D, D,D,D,D, | %72
 D,D,D,D, D,D,D,D, | G,2 z2 G,2 z2 | G,2 z2 G,2 z2 | G,2 z2 G,2 z2 | D,D,D,D, D,D,D,D, | %77
 [B,,D,]2 z D, [B,,D,G,][B,,D,G,][B,,D,G,][B,,D,G,] | %78
 G,/D,/B,,/D,/ G,/D,/B,,/D,/ [B,,D,G,][B,,D,G,][B,,D,G,][B,,D,G,] | %79
 G,,/4D,/4E,/4F,/4G,/E,/ C,/D,/E,/C,/ D,/4A,/4B,/4C/4D/A,/ F,/A,/C,/F,/ | %80
 G,/A,/B,/=C/ D/B,/G,/B,/ C,/4G,/4A,/4B,/4C/G,/ E,/G,/C,/G,/ | %81
 A,/B,/^C/D/ E/C/A,/C/ D,/4A,/4B,/4C/4D/A,/ F,/A,/=C,/F,/ | %82
 G,/A,/B,/=C/ D/B,/G,/B,/ C,/4G,/4A,/4B,/4C/G,/ E,/G,/C,/G,/ | %83
 A,/B,/^C/D/ E/C/A,/C/ D,/4A,/4B,/4C/4D/A,/ F,/A,/=C,/F,/ | F,DG,D A,DG,D | F,DG,D A,DG,D | %86
 D,/4E,/4F,/4G,/4A,/C,/ B,,/D,/G,,/B,,/ A,,/E,/C,/A,,/ D,/A,,/D,,/D,/- | D,4 z4 |] %88
[K:D][M:3/4] [D,F,B,]2 [D,F,B,]2 z3/2 [D,F,B,]/ | [C,E,]2 [C,E,]2 z3/2 [C,E,]/ | z2 [D,F,B,]2 z2 | %91
 [D,F,B,]2 [D,F,B,]2 z3/2 [D,F,B,]/ | B,2 C2 z3/2 D/ | [^A,,C,F,]2 [A,,C,F,]2 z3/2 [C,F,]/ | %94
 [D,F,]6 | B,2 B,2 z3/2 B,/ | ^A,2 A,2 z3/2 A,/ | B,2 B,2 z3/2 B,/ | E,2 E,2 z3/2 E,/ | %99
 F,2 z2 F,2 | B,2 B,2 z3/2 B,/ | F,2 F,2 z3/2 F,/ | B,2 B,2 z3/2 B,/ | F,2 F,2 z3/2 F,/ | %104
 B,2 B,2 z3/2 B,/ | =A,2 A,2 z3/2 A,/ | D2 D2 z3/2 D/ | A,2 A,2 z3/2 A,/ | D2 D2 z3/2 D/ | %109
 D2 D2 z3/2 D/ | G,2 G,2 z3/2 G,/ | A,2 A,2 z3/2 A,/ | D2 D2 z3/2 D/ | A,2 A,2 z3/2 A,/ | %114
 D2 D2 z3/2 D/ | E,2 E,2 z3/2 E,/ | A,2 A,2 z3/2 A,/ | F,2 F,2 z3/2 F,/ | B,2 B,2 z3/2 B,/ | %119
 C2 z2 C2 | F,2 F,2 z3/2 F,/ | B,2 ^D2 z3/2 D/ | E2 E,2 z3/2 E/ | A,2 =C2 z3/2 C/ | %124
 D2 D,2 z3/2 D/ | G,2 B,2 z3/2 B,/ | C2 C,2 z3/2 C/ | F,2 ^A,2 z3/2 A,/ | B,2 B,,2 z2 | %129
 F,2 F,2 z3/2 F,/ | B,2 B,2 z3/2 B,/ | B,2 B,2 z3/2 B,/ | F,2 F,2 z3/2 F,/ | B,2 B,2 z3/2 B,/ | %134
 E2 E2 z3/2 E,/ | F,2 F,2 z3/2 F,/ | B,2 z2 z2 | B,,2 B,,2 z3/2 B,,/ | F,2 F,2 z3/2 F,/ | %139
 F,,2 F,,2 z3/2 F,,/ | B,,2 B,,2 z3/2 B,,/ | E,,2 E,,2 z3/2 E,,/ | F,,2 F,,2 z3/2 F,,/ | B,,6 |] %144
[K:G][M:12/8] G,,B,,G,, D,D,,D, G,,B,,G,, D,D,,D, | G,,B,,G,, D,D,,D, B,,A,,G,, C,D,E, | %146
 D,2 D,, D,C,D, B,,G,,B,, D,D,,D, | B,,G,,B,, D,D,,D, B,,G,,B,, D,D,,D, | %148
 B,,A,,G,, C,D,E, D,D,,F,, A,,F,,A,, | D,F,D, A,A,,A, D,F,D, A,A,,A, | %150
 D,F,D, A,A,,A, F,E,D, G,A,B, | A,2 A,, A,G,A, F,D,F, A,A,,A, | F,D,F, A,A,,A, F,D,F, A,A,,A, | %153
 F,E,D, G,A,B, A,A,,^C, E,C,E, | F,A,G, F,E,D, G,3 z2 z | ^G,B,A, G,F,E, A,3 z2 z | %156
 ^A,^CB, A,^G,F, B,3 z2 z | CD^C B,=A,=G, A,CE A,DF | ^CA,C DA,D EA,E DA,D | %159
 GA,G FA,F EA,G, F,D,F, | G,E,G, A,G,A, D,F,A, DA,D | F,A,F, D,F,D, G,,B,,D, G,D,G, | %162
 ^G,B,G, E,G,E, A,,^C,E, F,D,F, | =G,E,G, A,A,,A, F,E,D, G,A,B, | %164
 F,B,A, G,F,E, D,D,,F,, A,,F,,A,, | D,D,F, A,F,A, D6 |] G,,B,,G,, D,D,,D, G,,B,,G,, D,D,,D, | %167
 G,,B,,G,, D,D,,D, B,,A,,G,, C,D,E, | D,2 D,, D,C,D, B,,G,,B,, D,D,,D, | %169
 B,,G,,B,, D,D,,D, B,,G,,B,, D,D,,D, | B,,A,,G,, C,D,E, D,D,,F,, A,,F,,A,, | %171
 D,F,D, A,A,,A, D,F,D, A,A,,A, | D,F,D, A,A,,A, F,E,D, G,A,B, | A,2 A,, A,G,A, F,D,F, A,A,,A, | %174
 F,D,F, A,A,,A, F,D,F, A,A,,A, | F,E,D, G,A,B, A,A,,^C, E,C,E, | F,A,G, F,E,D, G,3 z2 z | %177
 ^G,B,A, G,F,E, A,3 z2 z | ^A,^CB, A,^G,F, B,3 z2 z | CD^C B,=A,=G, A,CE A,DF | %180
 ^CA,C DA,D EA,E DA,D | GA,G FA,F EA,G, F,D,F, | G,E,G, A,G,A, D,F,A, DA,D | %183
 F,A,F, D,F,D, G,,B,,D, G,D,G, | ^G,B,G, E,G,E, A,,^C,E, F,D,F, | =G,E,G, A,A,,A, F,E,D, G,A,B, | %186
 F,B,A, G,F,E, D,D,,F,, A,,F,,A,, | D,D,F, A,F,A, D6 |] D,F,D, A,A,,A, D,F,D, A,A,,A, | %189
 D,F,D, A,A,,A, F,E,D, G,A,B, | A,2 A,, A,G,F, G,E,G, B,B,,B, | G,E,G, B,B,,B, G,E,G, B,B,,B, | %192
 G,F,E, A,B,=C B,2 B,, B,A,B, | E,G,B, E^DE ^C,3 z2 z | ^D,F,B, ^D^CD E,3 z2 z | %195
 ^C,E,C, ^A,,C,A,, F,,C,A,, F,,C,A,, | F,,^C,^A,, F,,C,A,, B,,D,F, B,D/=C/B,/=A,/ | %197
 G,B,A, G,A,F, E,/F,/G,/A,/B,/A,/ G,A,F, | %198
 E,B,/A,/G,/F,/ E,F,/E,/D,/^C,/ F,/^A,/^C/E/C/A,/ F,/A,/C/E/C/A,/ | %199
 F,/^A,/^C/E/C/A,/ F,/A,/C/E/C/A,/ B,3- (B,/G,/F,/E,/D,/=C,/) | %200
 B,,G,,B,, D,D,,D, B,,G,,B,, D,D,,D, | B,,G,,B,, D,D,,D, B,,A,,G,, C,D,E, | %202
 D,2 D,, D,C,D, B,,D,C, B,,A,,G,, | C,3 z2 z ^C,E,D, C,B,,A,, | D,3 z2 z ^D,F,E, D,^C,B,, | %205
 E,3 z2 z E,G,F, E,=D,=C, | F,3 z2 z F,A,G, F,E,D, | G,3 z2 z z/ G,/A,/B,/C/D/ E/F/G/F/E/D/ | %208
 C2 z D/E/F/E/D/C/ B,2 z C/D/E/D/C/B,/ | A,2 z B,/C/D/C/B,/A,/ G,2 z A,/B,/C/B,/A,/G,/ | %210
 F,2 z G,/A,/B,/A,/G,/F,/ E,/F,/G,/F,/E,/D,/ C,/B,,/C,/D,/E,/C,/ | D,F,A, D,G,B, F,D,F, G,D,G, | %212
 A,D,A, G,D,G, CD,C B,D,B, | A,D,C, B,,G,,B,, C,A,,C, D,C,D, | %214
 G,,B,,G,, D,D,,D, G,,B,,G,, D,D,,D, | B,,G,,G, F,D,F, G,G,,G, F,D,F, | G,B,G, DD,D B,G,B, DD,D | %217
 B,G,B, EDE CA,C DCD | G,/B,/A,/G,/F,/E,/ D,/G,/F,/E,/D,/C,/ B,,G,,B,, E,D,E, | %219
 C,A,,C, D,C,D, G,,6 :| %220
V:3
 x | [B,D][B,D][B,D][B,D] x4 | [B,D][B,D][B,D][B,D] x4 | B,C/D/ CB, A,F, z2 | [FA][FA][FA][FA] x4 | %5
 [FA][FA][FA][FA] x4 | FG/A/ GF E z x2 | x8 | x8 | x8 | x8 | x8 | x8 | x8 | x8 | x8 | x8 | x8 | %18
 x6 z C | B,2 z2 [B,D][B,D][B,D][B,D] | x4 [B,D][B,D][B,D][B,D] | x4 B,C/D/ CB, | A, z z2 z GBG | %23
 z GcG z GBG | G2 z2 z A^cA | z AdA z A^cA | A2 z2 z B^dB | z BeB z B^dB | B2 z2 z =ce^c | %29
 z c=fc z cec | c2 x6 | x8 | x8 | x8 | x8 | x8 | x8 | x8 | x4 [FA][FA][FA][FA] | %39
 x4 [FA][FA][FA][FA] | x4 FG/A/ GF | E z z2 AAAA | z4 AAAA | [Ad][FA] x6 | x8 | x8 | x8 | x8 | x8 | %49
 x4 FE/D/ ^C2 | [DF][DF][DF][DF] x4 | [DF][DF][DF][DF] x4 | [F^A][FA][FA][FA] x4 | %53
 [F^A][FA][FA][FA] x4 | [FB] z z2 [Bd][Bd][Bd][Bd] | x4 [A^c][Ac][Ac][Ac] | x4 [=GB][GB][GB][GB] | %57
 x4 [FA][FA][FA][FA] | x4 [EG][EG][EG][EG] | x8 | x2 G2- G2 A/B/^c/d/ | x2 A2- A2 B/^c/^d/e/ | %62
 z2 B2- B2 =c/=d/e/=f/ | x8 | x8 | x8 | x8 | x8 | x4 z [B,D][B,D][B,D] | x4 [B,D][B,D][B,D][B,D] | %70
 z4 B,C/D/ CB, | A, x7 | x8 | x8 | x8 | x8 | x8 | z [B,D][B,D][B,D] x4 | [B,D][B,D][B,D][B,D] x4 | %79
 B,C/D/ CB, A, x3 | x8 | x8 | x8 | x8 | x8 | x8 | x6 z [A,CD] | [G,B,D]4 z4 |] %88
[K:D][M:3/4] [FB]2 [FB]2 z3/2 [FB]/ | c2 c2 z3/2 [^Ac]/ | [^Ace]2 [Bd]2 z2 | %91
 [FB]2 [FB]2 z3/2 [FB]/ | [FB]2 [FB]2 z3/2 [FB]/ | [EF^A]2 [EFA]2 z3/2 [EF]/ | [DF]6 | x6 | x6 | %97
 x6 | x6 | x6 | x6 | x6 | x6 | x6 | x6 | x6 | x6 | x6 | x6 | x6 | x6 | x6 | F x5 | x6 | x6 | x6 | %116
 x6 | x6 | x6 | x6 | x6 | x6 | x6 | x6 | x6 | x6 | x6 | x6 | x6 | x6 | x6 | x6 | x6 | x6 | x6 | %135
 x6 | [FB] z z2 z2 | B,6 | [B,C]6 | [^A,C]6 | B,2 B,2 z3/2 B,/ |[K:bass] x6 | x6 | x6 |] %144
[K:G][M:12/8][K:treble] x12 | x12 | x12 | x12 | x12 | x12 | x12 | x12 | x12 | x12 | x12 | x12 | %156
 x12 | x12 | x12 | x12 | x12 | x12 | x12 | x12 | x12 | x12 |] x12 | x12 | x12 | x12 | x12 | x12 | %172
 x12 | x12 | x12 | x12 | x12 | x12 | x12 | x12 | x12 | x12 | x12 | x12 | x12 | x12 | x12 | x12 |] %188
 x12 | x12 | x12 | x12 | x12 | x12 | x12 | x12 | x12 | x12 | x12 | x12 | x12 | x12 | x12 | x12 | %204
 x12 | x12 | x12 | x12 | x12 | x12 | x12 | x12 | x12 | x12 | x12 | x12 | x12 | x12 | x12 | x12 :| %220
V:4
 x | G,,G,,G,,G,, G,,G,,G,,G,, | G,, z z2 G,,G,,G,,G,, | x8 | D,D,D,D, D,D,D,D, | %5
 D, z z2 D,D,D,D, | x6 z A, | F,F,F,F, G,G,G,G, | G,G,G,G, A,A,A,A, | A,A,A,A, B,B,B,B, | %10
 B,B,B,B, x4 | x2 z A,, D,2 z =C, | B,,2 z2 C,2 z C, | ^C,2 z2 D,2 z =C, | B,,2 z2 C,2 z C, | %15
 ^C,2 z2 D,2 z =C, | D,D,D,D, D,D,D,D, | D,D,D,D, D,D,D,D, | F,/ x15/2 | G,,2 z2 G,,G,,G,,G,, | %20
 G,,G,,G,,G,, G,, z z2 | G,,G,,G,,G,, x4 | x8 | x8 | x8 | x8 | x8 | x8 | x8 | x8 | x4 ^F,F,F,F, | %31
 F,F,F,F, F,F,F,F, | F,F,F,F, E,E,E,E, | E,E,E,E, D,D,D,D, | D,D,D,D, ^C,C,C,C, | %35
 ^C,C,C,C, B,,B,,B,,B,, | A,,2 z2 A,,A,,A,,A,, | A,,A,,A,,A,, A,,A,,A,,A,, | x4 D,D,D,D, | %39
 D,D,D,D, D, z z2 | D,D,D,D, x4 | x8 | x8 | x4 B,,B,,B,,B,, | %44
 B,,/A,,/G,,/A,,/ B,,/C,/D,/B,,/ C,C,C,C, | ^C,/B,,/A,,/B,,/ C,/D,/E,/C,/ D,D,D,D, | %46
 ^D,/^C,/B,,/C,/ D,/E,/F,/D,/ E,E,E,E, | E,/=D,/^C,/D,/ E,/F,/G,/E,/ F,F,F,F, | F,F,F,F, F,F,F,F, | %49
 F,F,F,F, x4 | B,,B,,B,,B,, B,,B,,B,,B,, | B,, z z2 B,,B,,B,,B,, | %52
 F, z z2 [F,^A,][F,A,][F,A,][F,A,] | F, z z2 [F,^A,][F,A,][F,A,][F,A,] | x8 | A,A,A,A, x4 | %56
 ^G,G,G,G, x4 | F,F,F,F, x4 | E,E,E,E, x4 | D,D,D,D, G, z x2 | x8 | x8 | x8 | x8 | x8 | x6 G,,G,, | %66
 A,,A,,B,,B,, C,C,G,,G,, | A,,A,,B,,B,, C,C,G,,G,, | A,,A,,D,,D,, G,,G,,G,,G,, | %69
 G,,G,,G,,G,, G,, z z2 | G,,G,,G,,G,, x4 | x4 [D,,F,,A,,]2 z2 | [D,,F,,A,,]2 z2 [D,,F,,A,,]2 z2 | %73
 D,D,D,D, D,D,D,D, | D,D,D,D, D,D,D,D, | D,D,D,D, D,D,D,D, | [D,,F,,A,,C,]2 z2 [D,,F,,A,,C,]2 z2 | %77
 G,,G,,G,,G,, G,,G,,G,,G,, | G,, z z2 G,,G,,G,,G,, | x8 | B,,2 z2 C,2 z C, | ^C,2 z2 D,2 z =C, | %82
 B,,2 z2 C,2 z C, | ^C,2 z2 D,2 z =C, | D,D,D,D, D,D,D,D, | D,D,D,D, D,D,D,D, | F,/ x15/2 | %87
 G,,4 z4 |][K:D][M:3/4] B,,2 B,,2 z3/2 B,,/ | ^A,,2 A,,2 z3/2 A,,/ | B,,2 B,,2 z2 | %91
 B,,2 B,,2 z3/2 B,,/ | F,2 F,2 z3/2 F,/ | F,,2 F,,2 z3/2 ^A,,/ | B,,6 | x6 | x6 | x6 | x6 | x6 | %100
 x6 | x6 | x6 | x6 | x6 | x6 | x6 | x6 | x6 | x6 | x6 | x6 | x6 | x6 | x6 | x6 | x6 | x6 | x6 | %119
 x6 | x6 | x6 | x6 | x6 | x6 | x6 | x6 | x6 | x6 | x6 | x6 | x6 | x6 | x6 | x6 | x6 | x6 | x6 | %138
 x6 | x6 | x6 | x6 | x6 | x6 |][K:G][M:12/8] x12 | x12 | x12 | x12 | x12 | x12 | x12 | x12 | x12 | %153
 x12 | x12 | x12 | x12 | x12 | x12 | x12 | x12 | x12 | x12 | x12 | x12 | x12 |] x12 | x12 | x12 | %169
 x12 | x12 | x12 | x12 | x12 | x12 | x12 | x12 | x12 | x12 | x12 | x12 | x12 | x12 | x12 | x12 | %185
 x12 | x12 | x12 |] x12 | x12 | x12 | x12 | x12 | x12 | x12 | x12 | x12 | x12 | x12 | x12 | x12 | %201
 x12 | x12 | x12 | x12 | x12 | x12 | x12 | x12 | x12 | x12 | x12 | x12 | x12 | x12 | x12 | x12 | %217
 x12 | x12 | x12 :| %220
V:5
 x | x8 | x8 | x8 | x8 | x8 | x8 | x8 | x8 | x8 | x8 | x8 | x8 | x8 | x8 | x8 | x8 | x8 | x8 | x8 | %20
 x8 | x8 | x8 | x8 | x8 | x8 | x8 | x8 | x8 | x8 | x8 | x8 | x8 | x8 | x8 | x8 | x8 | x8 | x8 | %39
 x8 | x8 | x8 | x8 | x8 | x8 | x8 | x8 | x8 | x8 | x8 | x8 | x8 | x8 | x8 | x8 | x8 | x8 | x8 | %58
 x8 | x8 | x8 | x8 | x8 | x8 | x8 | x8 | x8 | x8 | x8 | x8 | x8 | x8 | x8 | %73
 [G,,B,,]2 z2 [G,,B,,]2 z2 | [G,,_B,,]2 z2 [G,,B,,]2 z2 | D,2 z2 D,2 z2 | x8 | x8 | x8 | x8 | x8 | %81
 x8 | x8 | x8 | x8 | x8 | x8 | x8 |][K:D][M:3/4] x6 | x6 | x6 | x6 | x6 | x6 | x6 | x6 | x6 | x6 | %98
 x6 | x6 | x6 | x6 | x6 | x6 | x6 | x6 | x6 | x6 | x6 | x6 | x6 | x6 | x6 | x6 | x6 | x6 | x6 | %117
 x6 | x6 | x6 | x6 | x6 | x6 | x6 | x6 | x6 | x6 | x6 | x6 | x6 | x6 | x6 | x6 | x6 | x6 | x6 | %136
 x6 | x6 | x6 | x6 | x6 | x6 | x6 | x6 |][K:G][M:12/8] x12 | x12 | x12 | x12 | x12 | x12 | x12 | %151
 x12 | x12 | x12 | x12 | x12 | x12 | x12 | x12 | x12 | x12 | x12 | x12 | x12 | x12 | x12 |] x12 | %167
 x12 | x12 | x12 | x12 | x12 | x12 | x12 | x12 | x12 | x12 | x12 | x12 | x12 | x12 | x12 | x12 | %183
 x12 | x12 | x12 | x12 | x12 |] x12 | x12 | x12 | x12 | x12 | x12 | x12 | x12 | x12 | x12 | x12 | %199
 x12 | x12 | x12 | x12 | x12 | x12 | x12 | x12 | x12 | x12 | x12 | x12 | x12 | x12 | x12 | x12 | %215
 x12 | x12 | x12 | x12 | x12 :| %220
V:6
 z | z8 | z8 | z8 | z8 | z8 | z8 | z8 | z8 | z8 | z8 | z8 | z8 | z8 | z8 | z8 | z8 | z8 | z8 | z8 | %20
 z8 | z8 | z8 | z8 | z8 | z8 | z8 | z8 | z8 | z8 | z8 | z8 | z8 | z8 | z8 | z8 | z8 | z8 | z8 | %39
 z8 | z8 | z8 | z8 | z8 | z8 | z8 | z8 | z8 | z8 | z8 | z8 | z8 | z8 | z8 | z8 | z8 | z8 | z8 | %58
 z8 | z8 | z8 | z8 | z8 | z8 | z8 | z8 | z8 | z8 | z8 | z8 | z8 | z8 | z8 | z8 | z8 | z8 | z8 | %77
 z8 | z8 | z8 | z8 | z8 | z8 | z8 | z8 | z8 | z8 | z8 |][K:D][M:3/4] z6 | z6 | z6 | z6 | z6 | z6 | %94
 z6 | z6 | z6 | z6 | z6 | z6 | z6 | z6 | %102
!fff! F/4 B/4 d/4 B/4 F/4 B/4 F/4 B/4 F/4 B/4 d/4 B/4 F/4 B/4 F/4 B/4 F/4 B/4 d/4 B/4 F/4 B/4 F/4 B/4 | %103
 F/4 ^A/4 c/4 A/4 F/4 A/4 F/4 A/4 F/4 A/4 c/4 A/4 F/4 A/4 F/4 A/4 F/4 A/4 c/4 A/4 F/4 A/4 F/4 A/4 | %104
 F/4 B/4 d/4 B/4 F/4 B/4 F/4 B/4 F/4 B/4 d/4 B/4 F/4 B/4 F/4 B/4 F/4 B/4 d/4 B/4 F/4 B/4 F/4 B/4 | %105
 G/4 B/4 d/4 B/4 G/4 B/4 G/4 B/4 G/4 B/4 d/4 B/4 G/4 B/4 G/4 B/4 G/4 B/4 d/4 B/4 G/4 B/4 G/4 B/4 | %106
 A/4 d/4 f/4 d/4 A/4 d/4 A/4 d/4 A/4 d/4 f/4 d/4 A/4 d/4 A/4 d/4 A/4 d/4 f/4 d/4 A/4 d/4 A/4 d/4 | %107
 A/4 c/4 g/4 c/4 A/4 c/4 A/4 c/4 A/4 c/4 g/4 c/4 A/4 c/4 A/4 c/4 A/4 c/4 g/4 c/4 A/4 c/4 A/4 c/4 | %108
 A/4 d/4 f/4 d/4 A/4 d/4 A/4 d/4 A/4 d/4 f/4 d/4 A/4 d/4 A/4 d/4 A/4 d/4 f/4 d/4 A/4 d/4 A/4 d/4 | %109
 F/4 A/4 d/4 A/4 F/4 A/4 F/4 A/4 F/4 A/4 d/4 A/4 F/4 A/4 F/4 A/4 F/4 A/4 d/4 A/4 F/4 A/4 F/4 A/4 | %110
 E/4 G/4 d/4 G/4 E/4 G/4 E/4 G/4 E/4 G/4 d/4 G/4 E/4 G/4 E/4 G/4 E/4 G/4 d/4 G/4 E/4 G/4 E/4 G/4 | %111
 E/4 G/4 c/4 G/4 E/4 G/4 E/4 G/4 E/4 G/4 c/4 G/4 E/4 G/4 E/4 G/4 E/4 G/4 c/4 G/4 E/4 G/4 E/4 G/4 | %112
 z6 | z6 | z6 | z6 | z6 | z6 | z6 | z6 | z6 | z6 | z6 | z6 | z6 | z6 | z6 | z6 | z6 | z6 | z6 | %131
!fff! F/4 B/4 d/4 B/4 F/4 B/4 F/4 B/4 F/4 B/4 d/4 B/4 F/4 B/4 F/4 B/4 F/4 B/4 d/4 B/4 F/4 B/4 F/4 B/4 | %132
!fff! F/4 ^A/4 e/4 A/4 F/4 A/4 F/4 A/4!fff! F/4 A/4 e/4 A/4 F/4 A/4 F/4 A/4!fff! F/4 A/4 e/4 A/4 F/4 A/4 F/4 A/4 | %133
!fff! F/4 B/4 d/4 B/4 F/4 B/4 F/4 B/4 F/4 B/4 d/4 B/4 F/4 B/4 F/4 B/4 F/4 B/4 d/4 B/4 F/4 B/4 F/4 B/4 | %134
!fff! G/4 B/4 c/4 B/4 G/4 B/4 G/4 B/4!fff! G/4 B/4 c/4 B/4 G/4 B/4 G/4 B/4!fff! G/4 B/4 c/4 B/4 G/4 B/4 G/4 B/4 | %135
 F/4 ^A/4 c/4 A/4 F/4 A/4 F/4 A/4 F/4 A/4 c/4 A/4 F/4 A/4 F/4 A/4 F/4 A/4 c/4 A/4 F/4 A/4 F/4 A/4 | %136
 z6 | %137
!fff! B,/4 D/4 F/4 D/4 B,/4 D/4 B,/4 D/4!fff! B,/4 D/4 F/4 D/4 B,/4 D/4 B,/4 D/4!fff! B,/4 D/4 F/4 D/4 B,/4 D/4 B,/4 D/4 | %138
!fff! B,/4 C/4 F/4 C/4 B,/4 C/4 B,/4 C/4!fff!!fff! B,/4 C/4 F/4 C/4 B,/4 C/4 B,/4 C/4!fff!!fff! B,/4 C/4 F/4 C/4 B,/4 C/4 B,/4 C/4 | %139
!fff! ^A,/4 C/4 F/4 C/4 A,/4 C/4 A,/4 C/4!fff!!fff!!fff! A,/4 C/4 F/4 C/4 A,/4 C/4 A,/4 C/4!fff!!fff!!fff! A,/4 C/4 F/4 C/4 A,/4 C/4 A,/4 C/4 | %140
 z6 | z6 | z6 | z6 |][K:G][M:12/8] z12 | z12 | z12 | z12 | z12 | z12 | z12 | z12 | z12 | z12 | %154
 z12 | z12 | z12 | z12 | z12 | z12 | z12 | z12 | z12 | z12 | z12 | z12 |] z12 | z12 | z12 | z12 | %170
 z12 | z12 | z12 | z12 | z12 | z12 | z12 | z12 | z12 | z12 | z12 | z12 | z12 | z12 | z12 | z12 | %186
 z12 | z12 |] z12 | z12 | z12 | z12 | z12 | z12 | z12 | z12 | z12 | z12 | z12 | z12 | z12 | z12 | %202
 z12 | z12 | z12 | z12 | z12 | z12 | z12 | z12 | z12 | z12 | z12 | z12 | z12 | z12 | z12 | z12 | %218
 z12 | z12 :| %220

